X: 1839
T: Harrington Hall
M:6/8
L:1/8
B:O'Neill's 1839
Z:"Transcribed by Bob Safranek, rjs@gsp.org"
Z:probably should be a repeat at start of B part
K:D
   A | d2 d ceA | dff f2 g | afd dcd | e>(de/f/) gfe |
       d2 d ceA | dff f2 g | afd Bgf | edc       d2 :|
|: g | fdf  fga | fdd dcd  | eAA fAA | g>(fg/a/) gfe |
       d2 d ceA | dff f2 g | afd Bgf | edc       d2 :|


